X:1
T:Dorset 4-Hand Reel, 2nd Tune
M:2/4
R:Reel
L:1/8
N:Posted to tradtunes 20070813
Z:Steve Mansfield 20070813
K:A
E | Ac/e/ a/e/c/A | df df | Ac/e/ a/e/c/A | Be Be | Ac/e/ a/e/c/A | df df |
e/a/g/f/ e/d/c/B/ | Aa a :: c/d/ | ec ec | fd fd | ec ec |
Be e2 | ec ec | fd fd | e/a/g/f/ e/d/c/B/ | Aa a :|
